X:1
T:Title
%%score { ( 1 4 ) | ( 2 3 ) }
L:1/8
M:6/4
K:Db
V:1 treble nm="Grand Piano"
V:4 treble 
V:2 treble 
V:3 treble 
V:1
 z6 z4[Q:1/4=123] A,2 | A,2 A2 A2 B,2 =G2 G2 | A,2 [DFA]2 [CGA]2 z2 [FA]2 [DFA]2 | %3
 z2 [CGA]2 [CGA]2 z2 [CGA]2 [CEA]2 | z2 A2 A2 .A4 A,2 | A,2 A2 A2 B,2 =G2 G2 | %6
 A,2 A2 [GA]2[K:bass] z2 A2 D2 | E,2[K:treble] A2 A2 D2 =G2 G2 |[M:5/4] z2 A2 A2 A4 |[M:1/4] A2 | %10
[M:6/4] [Fd]3 [Fc] [FB]2 [FA]2 [_F=G]2 [=FA]2 | [EG]12 | e3 d c2 c2 B2 c2 | %13
 d4- [Gd-]2 [Fd]4 [FA]2 | [Fd]3 [Fc] [Fd]2 [FA]4 [FA]2 |[M:7/4] B3 =A B2 [=Ge]6 [Gd]2 | %16
 c3 B A2 A2 c3 e3 |[M:5/4] d4- [Gd-]2 [Fd]4 |] %18
V:2
 z12 | z2 [F,DF]2 [A,DF]2 z2 [CD_F]2 [B,DF]2 | z2[K:bass] F,2 E,2 z2 D2 D,2 | %3
 E,2 =D,2 E,2 A,2 E,2 G,2 | z2[K:treble] [DF]2 [DF]2 .[DF]6 | %5
 z2 [F,DF]2 [A,DF]2 z2 [CD_F]2[K:bass] [B,DF]2 | z2 [F,DF]2 [E,C]2 z2 [DF]2 F,2 | %7
 z2[K:treble] [A,CE]2 [CE]2 z2 [CE]2 [B,DE]2 |[M:5/4] z2 [CE]2 [DF]2 [CG]4 |[M:1/4] A,2 | %10
[M:6/4][K:bass] [D,A,]3 [D,A,] [D,A,]2 [D,D]2 [D,D]2 [D,D]2 | [A,C]4 A,2 A,4[K:treble] [A,EG]2 | %12
 [A,CG]3 [A,DF] [A,EG]2 [A,EG]2 [A,DG]2 [A,EG]2 | [D,D]4 [D,B,]2 [D,A,]4 [D,D]2 | %14
 [D,A,]3 [D,A,] [D,A,]2 [D,D]4 [D,D]2 |[M:7/4] [G,DG]3 [G,CG] [G,DG]2 [E,D]6 [E,E]2 | %16
 [A,EG]3 [A,DG] [A,CG]2 [A,CG]2 [A,EG]3 [A,CG]3 |[M:5/4][K:bass] z4 B,2 A,4 |] %18
V:3
 x12 | x12 | z6[K:bass] .D,6 | x12 | x2[K:treble] x10 | x10[K:bass] x2 | x12 | x2[K:treble] x10 | %8
[M:5/4] x10 |[M:1/4] x2 |[M:6/4][K:bass] x12 | x10[K:treble] x2 | x12 | x12 | x12 |[M:7/4] x14 | %16
 x14 |[M:5/4][K:bass] D,2- D,2- D,6 |] %18
V:4
 x12 | x12 | x12 | x12 | F,12 | x12 | z6[K:bass] .D,6 | x2[K:treble] x10 |[M:5/4] A,2- A,2- A,6 | %9
[M:1/4] x2 |[M:6/4] x12 | z4 C2 C4 c2 | x12 | .F6 z6 | x12 |[M:7/4] x14 | x14 | %17
[M:5/4] [DF]4 z2 z4 |] %18

